X:1
T:Title
%%score { ( 1 4 ) | ( 2 3 ) }
L:1/8
M:4/4
K:Bb
V:1 treble nm="Grand Piano"
V:4 treble 
V:2 bass 
V:3 bass 
V:1
 z4 z2[Q:1/4=100] [B,D]>[CE] | [DF]>[DF] [DF]>[DF] [DF]2 [EG]>[EA] | %2
 [DB]>[DB] [EB]>[EB] [DB]2 [DB]>[Ec] | [Fd]>[Ec] [DB]>[EG] [DF]>[K:bass][F,B,D] [B,DF]>[F,B,D] | %4
 [A,C]6 [F,B,D]>[F,CE] | [DF]>[DF] [DF]>[DF] [DF]2 [EG]>[EA] |[M:3/4] [DB]>[DB] [EB]>[EB] [DB]2 | %7
[M:1/4] [Ec]>[Ge] |[M:4/4] d>d d>B c2 A2 |[M:3/4] [DB]6 |[M:1/4] A>B |[M:4/4] c2 c2 c2 (3cBA | %12
[M:3/4] [DB]2 [DB]2 [DF]2 |[M:1/4] [DF]>[DF] |[M:4/4] [EG]>[EG] [FG]>[FG] [=Ec]2 [Ed]2 | c6 z2 | %16
[M:3/4] [DF]>[DF] [DF]>[DF] [DF]2 |[M:1/4] [EG]>[EA] |[M:4/4] [DB]>[DB] [EB]>[EB] [DB]2 [Ec]>[Ge] | %19
 d>d d>B c2 A2 |[M:3/4] [DB]6 |] %21
V:2
 z4 z2 [B,,F,]>[B,,F,] | [B,,B,]>[B,,B,] [B,,B,]>[B,,B,] [B,,B,]2 [E,B,]>[C,F,] | %2
 [B,,F,]>[B,,F,] [E,G,]>[E,G,] [B,,F,]2 [B,,B,]>[B,,B,] | %3
 [B,,B,]>[B,,B,] [B,,B,]>[B,,B,] [B,,B,]>B,, B,,>B,, | z2 F,2 F,2 z2 | %5
 [B,,B,]>[B,,B,] [B,,B,]>[B,,B,] [B,,B,]2 [E,B,]>[C,F,] | %6
[M:3/4] [B,,F,]>[B,,F,] [E,G,]>[E,G,] B,,2 |[M:1/4] [E,G,]>[E,B,] | %8
[M:4/4] [F,B,F]>[F,B,F] [F,B,F]>[F,B,D] [F,A,E]2 [F,CE]2 |[M:3/4] [B,,B,]6 | %10
[M:1/4] [F,CE]>[F,B,D] |[M:4/4] [F,A,E]2 [F,A,E]2 [F,A,E]2 (3[F,A,E][F,B,D][F,CE] | %12
[M:3/4] [B,,B,]2 [B,,B,]2 [B,,B,]2 |[M:1/4] [B,,B,]>[B,,B,] | %14
[M:4/4] [E,B,]>[E,B,] [D,=B,]>[D,B,] [C,G,]2 [C,_B,]2 | %15
 [F,A,F]>[F,A,] [C,G,]>[C,B,] [F,A,]2 [B,,B,]>[B,,B,] | %16
[M:3/4] [B,,B,]>[B,,B,] [B,,B,]>[B,,B,] [B,,B,]2 |[M:1/4] [E,B,]>[C,F,] | %18
[M:4/4] [B,,F,]>[B,,F,] [E,G,]>[E,G,] [B,,F,]2 [E,G,]>[E,B,] | %19
 [F,B,F]>[F,B,F] [F,B,F]>[F,B,D] [F,A,E]2 [F,CE]2 |[M:3/4] [B,,B,]6 |] %21
V:3
 x8 | x8 | x8 | x8 | F,2 z G, z E, D,>C, | x8 |[M:3/4] x6 |[M:1/4] x2 |[M:4/4] x8 |[M:3/4] x6 | %10
[M:1/4] x2 |[M:4/4] x8 |[M:3/4] x6 |[M:1/4] x2 |[M:4/4] x8 | x8 |[M:3/4] x6 |[M:1/4] x2 | %18
[M:4/4] x8 | x8 |[M:3/4] x6 |] %21
V:4
 x8 | x8 | x8 | x11/2[K:bass] x5/2 | x8 | x8 |[M:3/4] x6 |[M:1/4] x2 |[M:4/4] x8 |[M:3/4] x6 | %10
[M:1/4] x2 |[M:4/4] x8 |[M:3/4] x6 |[M:1/4] x2 |[M:4/4] x8 | z z/ F/ =E>G F2 D>[C_E] |[M:3/4] x6 | %17
[M:1/4] x2 |[M:4/4] x8 | x8 |[M:3/4] x6 |] %21

